X: 32
T:Bourre
O:France
A:Bourbonnais
R:Bourre  2 temps
M:2/4
L:1/8
Q:220
K:G
B|d2AA|c2GG|B>d cB|A/2G/2A/2B/2 A/2c/2B/2c/2|d2AA|c2GG|B>d cB|A3:|
|:F/2G/2|AA AA|A2 G/2F/2G/2A/2|Bd Be|^c>B Ad|AF GA|B2 EF/2G/2|
AG/2F/2E2|D3:||
